public/assets/images/hub-icon.svg

<?xml version="1.0" encoding="UTF-8" standalone="no"?>
<svg
   xmlns:dc="http://purl.org/dc/elements/1.1/"
   xmlns:cc="http://creativecommons.org/ns#"
   xmlns:rdf="http://www.w3.org/1999/02/22-rdf-syntax-ns#"
   xmlns:svg="http://www.w3.org/2000/svg"
   xmlns="http://www.w3.org/2000/svg"
   xmlns:sodipodi="http://sodipodi.sourceforge.net/DTD/sodipodi-0.dtd"
   xmlns:inkscape="http://www.inkscape.org/namespaces/inkscape"
   width="28"
   height="28"
   viewBox="0 0 28 28"
   fill="none"
   version="1.1"
   id="svg212"
   sodipodi:docname="hub-icon.svg"
   inkscape:version="1.0.2 (e86c870879, 2021-01-15, custom)">
  <metadata
     id="metadata218">
    <rdf:RDF>
      <cc:Work
         rdf:about="">
        <dc:format>image/svg+xml</dc:format>
        <dc:type
           rdf:resource="http://purl.org/dc/dcmitype/StillImage" />
      </cc:Work>
    </rdf:RDF>
  </metadata>
  <defs
     id="defs216" />
  <sodipodi:namedview
     pagecolor="#ffffff"
     bordercolor="#666666"
     borderopacity="1"
     objecttolerance="10"
     gridtolerance="10"
     guidetolerance="10"
     inkscape:pageopacity="0"
     inkscape:pageshadow="2"
     inkscape:window-width="1356"
     inkscape:window-height="750"
     id="namedview214"
     showgrid="false"
     inkscape:zoom="13.965359"
     inkscape:cx="14.474315"
     inkscape:cy="18.442442"
     inkscape:window-x="0"
     inkscape:window-y="16"
     inkscape:window-maximized="0"
     inkscape:current-layer="svg212" />
  <path
     d="M20.2499 11.6918L16.9507 9.94783C16.6734 9.80116 16.5 9.51373 16.5 9.2007C16.5 8.88766 16.6734 8.60023 16.9507 8.45356L20.2499 6.70958C20.7466 6.44707 21.3414 6.44707 21.8381 6.70958L25.1373 8.45356C25.4146 8.60023 25.588 8.88766 25.588 9.2007C25.588 9.51373 25.4146 9.80116 25.1373 9.94783L21.8381 11.6918C21.3414 11.9543 20.7466 11.9543 20.2499 11.6918Z"
     fill="#CE8010"
     id="path194" />
  <path
     fill-rule="evenodd"
     clip-rule="evenodd"
     d="M3.57045 8.62585L3.1875 7.44818L5.3546 5.38816L9.3797 5.29785L11.2493 6.55599L11.764 8.515L3.57045 8.62585Z"
     fill="#EC9F31"
     id="path196" />
  <path
     d="M7.37786 11.3146C9.51631 11.3146 11.2499 10.2401 11.2499 8.91465C11.2499 7.58917 9.51631 6.51465 7.37786 6.51465C5.23941 6.51465 3.50586 7.58917 3.50586 8.91465C3.50586 10.2401 5.23941 11.3146 7.37786 11.3146Z"
     fill="#CE8010"
     id="path198" />
  <path
     d="M16.3423 1.27157L26.0564 6.41927C26.8728 6.85219 27.3833 7.70059 27.3833 8.62457C27.3833 9.54854 26.8728 10.3969 26.0564 10.8299L16.3423 15.9776C14.8799 16.7524 13.1284 16.7524 11.6659 15.9776L1.95191 10.8299C1.13548 10.3969 0.625 9.54854 0.625 8.62457C0.625 7.70059 1.13548 6.85219 1.95191 6.41927L11.6659 1.27157C13.1284 0.496716 14.8799 0.496716 16.3423 1.27157ZM20.0942 5.74897L20.0661 5.76351L16.5345 7.63207C16.2377 7.78921 16.0521 8.09717 16.0521 8.43257C16.0521 8.76067 16.2297 9.06252 16.5153 9.2226L16.5345 9.23306L20.0661 11.1016C20.5884 11.3779 21.2122 11.3828 21.7381 11.1162L21.7662 11.1016L25.2977 9.23306C25.5945 9.07592 25.7801 8.76796 25.7801 8.43257C25.7801 8.10447 25.6025 7.80262 25.3169 7.64253L25.2977 7.63207L21.7662 5.76351C21.2438 5.48718 20.6201 5.48234 20.0942 5.74897ZM7.377 5.68243C5.23855 5.68243 3.505 6.75695 3.505 8.08243C3.505 9.40791 5.23855 10.4824 7.377 10.4824C9.51545 10.4824 11.249 9.40791 11.249 8.08243C11.249 6.75695 9.51545 5.68243 7.377 5.68243Z"
     fill="#FFD273"
     id="path200" />
  <path
     d="M14.7894 1.53907L17.9021 3.18598L18.8003 3.18599L18.8004 4.13399C18.8024 4.15851 18.8034 4.18324 18.8034 4.20813C18.8034 4.23301 18.8024 4.25774 18.8004 4.28226L18.8003 4.40199L18.7824 4.402C18.726 4.65888 18.5594 4.8824 18.321 5.00862L14.7894 6.87718C14.2578 7.15844 13.621 7.15844 13.0893 6.87718L9.5578 5.00862C9.31939 4.8824 9.15275 4.65888 9.09639 4.402L9.07227 4.40199V3.18599L9.97665 3.18598L13.0893 1.53907C13.621 1.25781 14.2578 1.25781 14.7894 1.53907Z"
     fill="#A57836"
     id="path202" />
  <path
     d="M13.0901 6.1096L9.55857 4.24104C9.26176 4.0839 9.07617 3.77594 9.07617 3.44055C9.07617 3.10516 9.26176 2.7972 9.55857 2.64005L13.0901 0.771495C13.6218 0.490231 14.2585 0.490231 14.7902 0.771495L18.3218 2.64005C18.6186 2.7972 18.8042 3.10516 18.8042 3.44055C18.8042 3.77594 18.6186 4.0839 18.3218 4.24104L14.7902 6.1096C14.2585 6.39086 13.6218 6.39086 13.0901 6.1096Z"
     fill="#EFBA6E"
     id="path204" />
  <path
     d="m 11.773,25.9006 h 10e-5 c 0.6865,0.3594 1.4524,0.5479 2.2308,0.5482 z m 0,0 -8.82994,-4.6231 -2.4e-4,-2e-4 m 0,0 C 2.12782,20.8509 1.625,20.019 1.625,19.1202 c 0,-0.8987 0.50282,-1.7306 1.31782,-2.1571 l 0.00103,-5e-4 m 0,0 c 0.11298,-0.0593 0.24619,-0.0119 0.2985,0.0854 0.04851,0.0902 0.01893,0.2094 -0.08729,0.2651 l -4.9e-4,3e-4 m -0.21072,-0.3508 0.21072,0.3508 m 0,0 c -0.66935,0.3517 -1.09452,1.0441 -1.09452,1.8055 0,0.7614 0.42517,1.4538 1.09452,1.8055 l 0.00107,6e-4 m 0,0 1.4104808,0.738913 L 11.9824,25.5491 c 10e-5,0 10e-5,10e-5 2e-4,10e-5 1.384089,0.701836 2.9271,0.559219 4.0433,-10e-5 l 8.8267,-4.6241 0.0011,-6e-4 m 0,0 c 0.6693,-0.3517 1.0945,-1.0441 1.0945,-1.8055 0,-0.7613 -0.4252,-1.4538 -1.0945,-1.8055 l -5e-4,-3e-4 m 0,0 C 24.747,17.2574 24.7174,17.1382 24.7659,17.048 m 0,0 c 0.0523,-0.0973 0.1855,-0.1447 0.2985,-0.0854 l 0.001,5e-4 m 0,0 c 0.815,0.4265 1.3179,1.2584 1.3179,2.1571 0,0.8988 -0.5029,1.7307 -1.3179,2.1571 l -2e-4,2e-4 m 0,0 -8.83,4.6231 v 0 m 8.83,-4.6231 -8.83,4.6231 m 0,0 c -0.6866,0.3594 -1.4525,0.5479 -2.2308,0.5482 z"
     fill="#ffffff"
     stroke="#009191"
     stroke-width="2"
     id="path206"
     sodipodi:nodetypes="ccccccccscccccccccsccccccccccsccccccccscccccccccc" />
  <path
     fill-rule="evenodd"
     clip-rule="evenodd"
     d="M11.5951 9.88672L19.0211 11.3898V12.276C19.0228 12.4618 18.9232 12.6419 18.7476 12.7345L13.9688 15.2533C13.9538 15.2613 13.9384 15.2684 13.9226 15.2748C13.6606 15.3812 13.362 15.255 13.2557 14.993L11.6313 10.991C11.6019 10.9184 11.5896 10.8403 11.595 10.7628L11.5951 9.88672Z"
     fill="#A57836"
     id="path208" />
  <path
     fill-rule="evenodd"
     clip-rule="evenodd"
     d="M11.6313 10.0953L13.2557 14.0972C13.362 14.3593 13.6606 14.4854 13.9226 14.3791C13.9384 14.3727 13.9538 14.3655 13.9688 14.3576L18.7476 11.8387C18.9978 11.7069 19.0937 11.3972 18.9618 11.1471C18.8925 11.0155 18.7693 10.9206 18.6244 10.887L12.2213 9.40394C11.9458 9.34014 11.6708 9.51173 11.607 9.78721C11.5832 9.88996 11.5917 9.99756 11.6313 10.0953Z"
     fill="#EFBA6E"
     id="path210" />
</svg>

<svg width="28" height="28" viewBox="0 0 28 28" fill="none" xmlns="http://www.w3.org/2000/svg">
<path d="M20.2499 11.6918L16.9507 9.94783C16.6734 9.80116 16.5 9.51373 16.5 9.2007C16.5 8.88766 16.6734 8.60023 16.9507 8.45356L20.2499 6.70958C20.7466 6.44707 21.3414 6.44707 21.8381 6.70958L25.1373 8.45356C25.4146 8.60023 25.588 8.88766 25.588 9.2007C25.588 9.51373 25.4146 9.80116 25.1373 9.94783L21.8381 11.6918C21.3414 11.9543 20.7466 11.9543 20.2499 11.6918Z" fill="#CE8010"/>
<path fill-rule="evenodd" clip-rule="evenodd" d="M3.57045 8.62585L3.1875 7.44818L5.3546 5.38816L9.3797 5.29785L11.2493 6.55599L11.764 8.515L3.57045 8.62585Z" fill="#EC9F31"/>
<path d="M7.37786 11.3146C9.51631 11.3146 11.2499 10.2401 11.2499 8.91465C11.2499 7.58917 9.51631 6.51465 7.37786 6.51465C5.23941 6.51465 3.50586 7.58917 3.50586 8.91465C3.50586 10.2401 5.23941 11.3146 7.37786 11.3146Z" fill="#CE8010"/>
<path d="M16.3423 1.27157L26.0564 6.41927C26.8728 6.85219 27.3833 7.70059 27.3833 8.62457C27.3833 9.54854 26.8728 10.3969 26.0564 10.8299L16.3423 15.9776C14.8799 16.7524 13.1284 16.7524 11.6659 15.9776L1.95191 10.8299C1.13548 10.3969 0.625 9.54854 0.625 8.62457C0.625 7.70059 1.13548 6.85219 1.95191 6.41927L11.6659 1.27157C13.1284 0.496716 14.8799 0.496716 16.3423 1.27157ZM20.0942 5.74897L20.0661 5.76351L16.5345 7.63207C16.2377 7.78921 16.0521 8.09717 16.0521 8.43257C16.0521 8.76067 16.2297 9.06252 16.5153 9.2226L16.5345 9.23306L20.0661 11.1016C20.5884 11.3779 21.2122 11.3828 21.7381 11.1162L21.7662 11.1016L25.2977 9.23306C25.5945 9.07592 25.7801 8.76796 25.7801 8.43257C25.7801 8.10447 25.6025 7.80262 25.3169 7.64253L25.2977 7.63207L21.7662 5.76351C21.2438 5.48718 20.6201 5.48234 20.0942 5.74897ZM7.377 5.68243C5.23855 5.68243 3.505 6.75695 3.505 8.08243C3.505 9.40791 5.23855 10.4824 7.377 10.4824C9.51545 10.4824 11.249 9.40791 11.249 8.08243C11.249 6.75695 9.51545 5.68243 7.377 5.68243Z" fill="#FFD273"/>
<path d="M14.7894 1.53907L17.9021 3.18598L18.8003 3.18599L18.8004 4.13399C18.8024 4.15851 18.8034 4.18324 18.8034 4.20813C18.8034 4.23301 18.8024 4.25774 18.8004 4.28226L18.8003 4.40199L18.7824 4.402C18.726 4.65888 18.5594 4.8824 18.321 5.00862L14.7894 6.87718C14.2578 7.15844 13.621 7.15844 13.0893 6.87718L9.5578 5.00862C9.31939 4.8824 9.15275 4.65888 9.09639 4.402L9.07227 4.40199V3.18599L9.97665 3.18598L13.0893 1.53907C13.621 1.25781 14.2578 1.25781 14.7894 1.53907Z" fill="#A57836"/>
<path d="M13.0901 6.1096L9.55857 4.24104C9.26176 4.0839 9.07617 3.77594 9.07617 3.44055C9.07617 3.10516 9.26176 2.7972 9.55857 2.64005L13.0901 0.771495C13.6218 0.490231 14.2585 0.490231 14.7902 0.771495L18.3218 2.64005C18.6186 2.7972 18.8042 3.10516 18.8042 3.44055C18.8042 3.77594 18.6186 4.0839 18.3218 4.24104L14.7902 6.1096C14.2585 6.39086 13.6218 6.39086 13.0901 6.1096Z" fill="#EFBA6E"/>
<path d="M11.773 25.9006L11.7731 25.9006C12.4596 26.26 13.2255 26.4485 14.0039 26.4488L11.773 25.9006ZM11.773 25.9006L2.94306 21.2775L2.94282 21.2773M11.773 25.9006L2.94282 21.2773M2.94282 21.2773C2.12782 20.8509 1.625 20.019 1.625 19.1202C1.625 18.2215 2.12782 17.3896 2.94282 16.9631L2.94385 16.9626M2.94282 21.2773L2.94385 16.9626M2.94385 16.9626C3.05683 16.9033 3.19004 16.9507 3.24235 17.048C3.29086 17.1382 3.26128 17.2574 3.15506 17.3131L3.15457 17.3134M2.94385 16.9626L3.15457 17.3134M3.15457 17.3134C2.48522 17.6651 2.06005 18.3575 2.06005 19.1189C2.06005 19.8803 2.48522 20.5727 3.15457 20.9244L3.15564 20.925M3.15457 17.3134L3.15564 20.925M3.15564 20.925L11.9824 25.5491C11.9825 25.5491 11.9825 25.5492 11.9826 25.5492C11.9827 25.5493 11.9828 25.5493 11.9829 25.5494C13.2475 26.2126 14.7614 26.2125 16.0259 25.5491L24.8526 20.925L24.8537 20.9244M3.15564 20.925L24.8537 20.9244M24.8537 20.9244C25.523 20.5727 25.9482 19.8803 25.9482 19.1189C25.9482 18.3576 25.523 17.6651 24.8537 17.3134L24.8532 17.3131M24.8537 20.9244L24.8532 17.3131M24.8532 17.3131C24.747 17.2574 24.7174 17.1382 24.7659 17.048L23.8851 16.5745M24.8532 17.3131L23.8851 16.5745M23.8851 16.5745L24.7659 17.048C24.8182 16.9507 24.9514 16.9033 25.0644 16.9626L25.0654 16.9631M23.8851 16.5745L25.0654 16.9631M25.0654 16.9631C25.8804 17.3896 26.3833 18.2215 26.3833 19.1202C26.3833 20.019 25.8804 20.8509 25.0654 21.2773L25.0652 21.2775M25.0654 16.9631L25.0652 21.2775M25.0652 21.2775L16.2352 25.9006L16.2352 25.9006M25.0652 21.2775L16.2352 25.9006M16.2352 25.9006C15.5486 26.26 14.7827 26.4485 14.0044 26.4488L16.2352 25.9006Z" fill="white" stroke="#009191" stroke-width="2"/>
<path fill-rule="evenodd" clip-rule="evenodd" d="M11.5951 9.88672L19.0211 11.3898V12.276C19.0228 12.4618 18.9232 12.6419 18.7476 12.7345L13.9688 15.2533C13.9538 15.2613 13.9384 15.2684 13.9226 15.2748C13.6606 15.3812 13.362 15.255 13.2557 14.993L11.6313 10.991C11.6019 10.9184 11.5896 10.8403 11.595 10.7628L11.5951 9.88672Z" fill="#A57836"/>
<path fill-rule="evenodd" clip-rule="evenodd" d="M11.6313 10.0953L13.2557 14.0972C13.362 14.3593 13.6606 14.4854 13.9226 14.3791C13.9384 14.3727 13.9538 14.3655 13.9688 14.3576L18.7476 11.8387C18.9978 11.7069 19.0937 11.3972 18.9618 11.1471C18.8925 11.0155 18.7693 10.9206 18.6244 10.887L12.2213 9.40394C11.9458 9.34014 11.6708 9.51173 11.607 9.78721C11.5832 9.88996 11.5917 9.99756 11.6313 10.0953Z" fill="#EFBA6E"/>
</svg>
